!!!!SEGMENT: pl-kk--kk-i-315--003_palestrina-giovanni-pierluigi-da--nigra-sum-sed-formosa.krn
!!!cenid: 16xx:1099
!!!COM: Palestrina, Giovanni Pierluigi da
!!!COM-rismID:
!!!CDT: ~1525-1594/02/02
!!!CNT: Italian
!!!OTL: Nigra sum sed formosa
!!!PDT:
!!!AGN: Sacred
!!!SMS-siglum: PL-Kk
!!!SMS-shelfmark: Kk.I.315
!!!SMS-shelfwork: 003 W
!!!SMS-variant:
!!!SMS-altvar:
!!!NIFC-rismSourceID: 1001146221
!!!NIFC-islandoraID: pl-kk:5289
!!!URL-pdf-islandora: https://repozytorium.nifc.pl/islandora/object/pl-kk%3A5289/datastream/PDF/view
!!!URL-scan: https://polish.musicsources.pl/pl/lokalizacje/galeria/rekopisy/5934 @EN{Scan on Polish Music Herritage in Open Access Website} @PL{Skany w portalu Dziedzictwo Muzyki Polskiej w otwartym dostępie}
!!!ONB-nifc: UWAGA: motety w zbiorze: 1. Osculetur me, 2. Trahe me post curremus, 3. Nigra sum sed formosa, 4. Vineam meam, 5. Si ignoras te o pulchra, 6. Pulchrae sunt genae tuae, 7. Fasciculus myrrhae, 8. Ecce tu pulcher es, 9. Tota pulchra es amica mea, 10. Vulnerasti cor meum, 11. Sicut lilium inter spinas, 12. Introduxit me rex, 13. Laeva ejus, 14. Vox dilecti mei
!!!AIN: 1 alto
!!!key:
**kern	**text
*Ialto	*
*I"[Altus]	*
*I'[A]	*
*clefC2	*
*k[b-]	*
*F:	*
*M2/1	*
*met(C|)	*
=1-	=1-
!LO:TX:a:t=P:problem=inicjał N przed kluczem	!
!LO:TX:a:t=P:problem=w źródle znaki przykluczowe b- B-	!
00r	.
=2-	=2-
.	.
=3-	=3-
00r	.
=4-	=4-
.	.
=5-	=5-
0g	3. Ni-
=6-	=6-
1g	-gra
1f#X,<	sum
=7-	=7-
1.g	sed
!LO:TX:t=P:problem=all/middle or right&colon; global	!
2d/	for-
=8-	=8-
1fny	-mo-
1e	-sa
=9-	=9-
0r	.
=10-	=10-
2rd	.
1d	ni-
!LO:TX:t=P:problem=2\middle or right&colon; global	!
2a\	-gra
=11-	=11-
2b-,<\	ſum
!LO:LB:g=original	!
2b-\	sed
2g\	for-
2.a\	-mo-
=12-	=12-
.	.
!LO:TX:t=P:problem=4\middle or left&colon; global	!
4g\	.
1g	.
2f\	.
=13-	=13-
1g	-sa
0r	.
=14-	=14-
.	.
2.f\	fi-
4f\	-li-
=15-	=15-
2f,<\	-a
2e/	Je-
2f\	-ru-
2g\	-sa-
=16-	=16-
1a,<	-lem
2.a\	fi-
4a\	-li-
!LO:LB:g=original	!
=17-	=17-
2a,<\	-a
2d/	Je-
2e/	-ru-
2f\	-sa-
=18-	=18-
1e	-lem
!LO:TX:a:t=1	!
1r	.
=19-	=19-
2r	.
1a	si-
2g\	-cut
=20-	=20-
2f\	ta-
2e/	-ber-
2f\	-na-
2g\	-cu-
=21-	=21-
2a,<\	-la
*custos:c	*
2d/	ce-
!LO:LB:g=original	!
2.c/	-dar
4d/	.
=22-	=22-
4e/	.
4c/	.
2d/	.
1a	.
=23-	=23-
0r	.
=24-	=24-
2r	.
2a\	si-
2g,<\	-cut
1f\	ta-
=25-	=25-
.	.
2e/	-ber-
2f\	-na-
2g\	-cu-
=26-	=26-
2g,<\	-la
2f\	ce-
!LO:TX:t=P:problem=kreska pseudotaktowa	!
1g	-dar
!LO:LB:g=original	!
=27-	=27-
!LO:TX:a:t=3	!
0r	.
=28-	=28-
1r	.
1d	si-
=29-	=29-
2e,</	-cut
2f\	pel-
4g\	.
4f\	.
4g\	.
4a\	.
=30-	=30-
2b-,<\	-les
1g	Sa-
2f\	-lo-
=31-	=31-
1b-	-mo-
0a	-nis
=32-	=32-
.	.
2r	.
2g\	si-
=33-	=33-
0a	-cut
=34-	=34-
1.b-	pel-
2a,<\	-les
!LO:PB:g=original	!
=35-	=35-
2f\	Sa-
2a\	-lo-
1.g	-mo-
=36-	=36-
.	.
2f#X\	-nis
2r	.
2g\	no-
=37-	=37-
1g	-li-
1e,<	-te
=38-	=38-
2f\ny	me
2f\	con-
2a\	-si-
2a\	-de-
=39-	=39-
1b-	-ra-
!LO:TX:t=P:problem=kreska pseudotaktowa	!
1a	-re
!LO:LB:g=original	!
=40-	=40-
2r	.
2a\	quod
2f\	fu-
2g\	-sca
=41-	=41-
1a	sim
!LO:TX:a:t=2	!
0r	.
=42-	=42-
.	.
1e	qui-
=43-	=43-
2e,</	-a
2c/	de-
2d/	-co-
2e/	-lo-
=44-	=44-
2f\	-ra-
2g,<\	-vit
2e/	me
4g\	.
*custos:e	*
4f\	sol
!LO:LB:g=original	!
=45-	=45-
4e/	.
4d/	sol
2c/	.
1d	.
=46-	=46-
2r	.
1g	fi-
2e/	-li-
=47-	=47-
2c,</	-i
2.cc\	ma-
4b-\	.
4a\	.
4g\	.
=48-	=48-
4f\	.
4e\	.
4d/	.
4c/	.
2B-/	.
2c/	-tris
=49-	=49-
2d/	me-
!LO:TX:t=P:problem=kreska pseudotaktowa	!
2d/	-(ae)
!LO:LB:g=original	!
2r	.
!LO:TX:t=P:problem=niewyraźny zapis wysokości	!
2.g\	pu-
=50-	=50-
.	.
4a\	-gna-
2.cc\	-ve-
4b-\	-runt
4a\	con-
4a\	-tra
=51-	=51-
1f	me
2r	.
2.b-\	pu-
=52-	=52-
.	.
4a\	-gna-
2.b-\	-ve-
4a\	-runt
4g\	con-
4f\	.
=53-	=53-
2g,<\	-tra
1g	po-
2g\	-su-
!LO:LB:g=original	!
=54-	=54-
1g	-e-
1g	-runt
=55-	=55-
2g,<\	me
2g\	cu-
1cc	-sto-
=56-	=56-
2a,<\	-dem
2cc\	in
4b-\	Vi-
4a\	.
2.a\	.
=57-	=57-
.	.
4g\	.
1g	.
2f#X\	-ne-
=58-	=58-
2g,<\	-is
1.b#X	po-
=59-	=59-
2b-y\	-su-
!LO:LB:g=original	!
1b-	-e-
1cc\,<	-runt
=60-	=60-
.	.
1cc	me
1a\	cu-
=61-	=61-
.	.
1b-	-sto-
2.g,<\	-de(m)
=62-	=62-
.	.
4g\	in
2a\	vi-
2b-\	-ne-
1a\	-is
=63-	=63-
.	.
2r	.
1g	po-
=64-	=64-
2g\	-su-
1g	-e-
1g\	-runt
=65-	=65-
.	.
2a,<\	me
!LO:LB:g=original	!
1a	cu-
=66-	=66-
2.f\ny	-sto-
4e/	.
2d/	.
2c,</	-dem
=67-	=67-
2e-X/	in
4d/	.
4G/	vi-
1g	.
=68-	=68-
2f#X\	-ne-
!LO:N:vis=00	!
1.g	-is:
==	==
*-	*-
!!!RDF**kern: l = terminal long
!!!RDF**kern: > = above
!!!RDF**kern: < = below
!!!EED: Antoni Szymański
!!!EEV: 2021-03-28
!!!ENC: Mateusz Solarz
!!!END: 2021-03-19
